!!!!SEGMENT: pl-kk--kk-i-3--022_anonim--alleluia-angelus-intuit.krn
!!!cenid: 15xx:630
!!!COM: Anonim
!!!COM-rismid: pe30004985
!!!CDT:
!!!CNT:
!!!OTL: Alleluia, Angelus intuit
!!!PDT:
!!!AGN:
!!!SMS-siglum: PL-Kk
!!!SMS-shelfmark: Kk.I.3
!!!SMS-shelfwork: 022 W
!!!SMS-variant:
!!!SMS-altvar:
!!!NIFC-rismid: 1001145521
!!!URL-scan: http://repozytorium.nifc.pl/skany/pl-kk-nut--i-3
!!!ONB-nifc: UWAGA: Discantus (s. 88r-89v, skan 0090-0092), Tenor (s. 65v-66v, skan 0238-0239), Bassus (s. 86r-87v, skan 0389-0391)
!!!key: e:phr
**kern	**text	**kern	**text	**kern	**text
*part3	*part3	*part2	*part2	*part1	*part1
*staff3	*staff3	*staff2	*staff2	*staff1	*staff1
*I"Bassus	*	*I"Tenor	*	*I"Discantus	*
*I'B	*	*I'T	*	*I'A	*
*Ibass	*	*Itenor	*	*Ialto	*
*ICvox	*	*ICvox	*	*ICvox	*
*clefF4	*	*clefC4	*	*clefC3	*
*k[]	*	*k[]	*	*k[]	*
*e:phr	*	*e:phr	*	*e:phr	*
*M2/1	*	*M2/1	*	*M2/1	*
*met(C|)	*	*met(C|)	*	*met(C|)	*
=1-	=1-	=1-	=1-	=1-	=1-
*lig	*	*	*	*	*
1G	Al-	1C	Al-	1c	Al-
*	*	*lig	*	*	*
1F	.	1D	-le-	1A	-le-
*Xlig	*	*	*	*	*
=2-	=2-	=2-	=2-	=2-	=2-
1E	-le-	1E	.	2G/	.
.	.	.	.	1c	.
*	*	*Xlig	*	*	*
*	*	*lig	*	*	*
1D	.	1F	.	.	.
.	.	.	.	2B/	.
=3-	=3-	=3-	=3-	=3-	=3-
1C	.	1E	.	1c	.
*	*	*Xlig	*	*	*
1F	.	1D	.	1d	.
=4-	=4-	=4-	=4-	=4-	=4-
1E	.	0G	.	1B	.
2E/	.	.	.	2B/	.
!LO:SIC:v:t=custos D	!	!	!	!	!
2C/	.	.	.	1e\	.
!LO:LB:g=original	!	!	!	!	!
=5-	=5-	=5-	=5-	=5-	=5-
1D	.	1F	.	.	.
!	!	!	!	!LO:SIC:v:t=custos c	!
.	.	.	.	2d/	.
!	!	!	!	!LO:LB:g=original	!
2AA/	.	1E	.	1c	.
2C/	.	.	.	.	.
=6-	=6-	=6-	=6-	=6-	=6-
*	*	*	*	*lig	*
1BB	-lu-	1D	-lu-	1d	-lu-
1AA	-ya	0E;	-ya	1c	.
*	*	*	*	*Xlig	*
=7-	=7-	=7-	=7-	=7-	=7-
!LO:TX:t=P:problem=signum congruentiae	!	!	!	!LO:TX:t=P:problem=signum congruentiae	!
1AA	.	.	.	1c	-ya
!	!	!LO:SIC:v:t=custos A	!	!	!
1E	.	1G	.	1B	.
!	!	!LO:LB:g=original	!	!	!
=8-	=8-	=8-	=8-	=8-	=8-
*	*	*lig	*	*	*
2AA/	.	1A	.	2c/	.
2C/	.	.	.	1e	.
1BB	.	1G	.	.	.
.	.	.	.	2d/	.
*	*	*Xlig	*	*	*
=9-	=9-	=9-	=9-	=9-	=9-
0AA	.	0c	.	0e	.
=10-	=10-	=10-	=10-	=10-	=10-
0E	.	1B	.	1e	.
*	*	*	*	*lig	*
.	.	1G	.	1g	.
=11-	=11-	=11-	=11-	=11-	=11-
*	*	*lig	*	*	*
1D	.	1A	.	1f	.
*	*	*	*	*Xlig	*
*	*	*	*	*2\right	*
2E/	.	1G	.	2g\	.
2C/	.	.	.	1e\	.
*	*	*Xlig	*	*	*
=12-	=12-	=12-	=12-	=12-	=12-
*	*	*lig	*	*	*
1D	.	1F	.	.	.
.	.	.	.	2d/	.
!LO:SIC:v:t=custos D	!	!	!	!LO:SIC:v:t=custos A	!
1C	.	1E	.	1e	.
*	*	*Xlig	*	*	*
!LO:LB:g=original	!	!	!	!LO:LB:g=original	!
=13-	=13-	=13-	=13-	=13-	=13-
1D	.	1F	.	1A	.
0GG	.	0G	.	0B	.
=14-	=14-	=14-	=14-	=14-	=14-
.	.	.	.	.	.
1D	.	1F	.	2A/	.
.	.	.	.	2B/	.
=15-	=15-	=15-	=15-	=15-	=15-
*	*	*lig	*	*	*
2C/	.	1E	.	1c	.
2AA/	.	.	.	.	.
1BB	.	1D	.	1d	.
*	*	*Xlig	*	*	*
=16-	=16-	=16-	=16-	=16-	=16-
*	*	*lig	*	*	*
1AA	.	1E	.	1c	.
2AA/	.	1C	.	2c/	.
1E\	.	.	.	1B/	.
*	*	*Xlig	*	*	*
=17-	=17-	=17-	=17-	=17-	=17-
*	*	*lig	*	*	*
.	.	1G	.	.	.
2C/	.	.	.	1e	.
2D/	.	1F	.	.	.
2F/	.	.	.	1d\	.
*	*	*Xlig	*	*	*
=18-	=18-	=18-	=18-	=18-	=18-
1E	.	1G	.	.	.
.	.	.	.	2c/	.
*	*	*lig	*	*	*
1D	.	1A	.	1d	.
=19-	=19-	=19-	=19-	=19-	=19-
1E	.	1G	.	2B/	.
!	!	!	!	!LO:SIC:v:t=custos d	!
.	.	.	.	2c/	.
*	*	*Xlig	*	*	*
*	*	*lig	*	*	*
!	!	!	!	!LO:LB:g=original	!
1D	.	1F	.	1d	.
=20-	=20-	=20-	=20-	=20-	=20-
!LO:SIC:v:t=custos E	!	!LO:SIC:v:t=custos F	!	!	!
2C/	.	1G	.	2e/	.
!LO:LB:g=original	!	!	!	!	!
2E/	.	.	.	1c	.
*	*	*Xlig	*	*	*
!	!	!LO:LB:g=original	!	!	!
1D	.	1F	.	.	.
.	.	.	.	2B/	.
=21-	=21-	=21-	=21-	=21-	=21-
*	*	*lig	*	*	*
1C	.	1E	.	1c	.
*	*	*	*	*lig	*
2GG/	.	1D	.	1d	.
2BB/	.	.	.	.	.
*	*	*Xlig	*	*	*
=22-	=22-	=22-	=22-	=22-	=22-
*	*	*lig	*	*	*
1AA	.	1E	.	1c	.
*	*	*	*	*Xlig	*
2C/	.	1C	.	2c/	.
2E/	.	.	.	2G/	.
*	*	*Xlig	*	*	*
=23-	=23-	=23-	=23-	=23-	=23-
1D	.	1D	.	2A/	.
.	.	.	.	2B/	.
1Cl;	.	1El;	.	1cl;	.
=24||	=24||	=24||	=24||	=24||	=24||
*lig	*	*lig	*	*lig	*
1C	An	1E	An-	1e	An-
!	!	!	!	!LO:SIC:v:t=custos B	!
1D	.	1F	.	1d	.
*Xlig	*	*Xlig	*	*Xlig	*
!	!	!	!	!LO:LB:g=original	!
=25-	=25-	=25-	=25-	=25-	=25-
1E	.	0G	.	1B	.
!LO:SIC:v:t=custos C	!	!	!	!	!
2E/	.	.	.	2B/	.
!LO:PB:g=original	!	!	!	!	!
2C/	.	.	.	1e\	.
=26-	=26-	=26-	=26-	=26-	=26-
1D	.	1F	.	.	.
.	.	.	.	2d/	.
2AA/	.	1E	.	1c	.
2C/	.	.	.	.	.
=27-	=27-	=27-	=27-	=27-	=27-
*	*	*lig	*	*lig	*
1BB	.	1D	-ge-	1d	-ge-
0AA	.	1E	.	1c	.
*	*	*Xlig	*	*Xlig	*
=28-	=28-	=28-	=28-	=28-	=28-
!	!	!LO:SIC:v:t=custos G	!	!	!
.	.	1E	-lus	1c	-lvs
!	!	!LO:PB:g=original	!	!	!
1E	.	1G	.	1B	.
=29-	=29-	=29-	=29-	=29-	=29-
*	*	*lig	*	*	*
2AA/	.	1A	.	2c/	.
2C/	.	.	.	1e\	.
1BB	.	1G	.	.	.
.	.	.	.	2d/	.
*	*	*Xlig	*	*	*
=30-	=30-	=30-	=30-	=30-	=30-
0AA	.	0c	.	0e	.
.	.	.	.	.	.
=31-	=31-	=31-	=31-	=31-	=31-
*	*	*lig	*	*	*
0E	.	1B	.	1e	.
*	*	*	*	*lig	*
.	.	1G	.	1g	.
*	*	*Xlig	*	*	*
=32-	=32-	=32-	=32-	=32-	=32-
*	*	*lig	*	*	*
1D	.	1A	.	1f	.
*	*	*	*	*Xlig	*
!	!	!	!	!LO:SIC:v:t=custos e	!
2E/	.	1G	.	2g\	.
!	!	!	!	!LO:PB:g=original	!
2C/	.	.	.	1e\	.
*	*	*Xlig	*	*	*
=33-	=33-	=33-	=33-	=33-	=33-
*	*	*lig	*	*	*
1D	.	1F	.	.	.
.	.	.	.	2d/	.
!LO:SIC:v:t=custos D	!	!	!	!	!
1C	.	1E,<	.	1e	in-
*	*	*Xlig	*	*	*
!LO:LB:g=original	!	!	!	!	!
=34-	=34-	=34-	=34-	=34-	=34-
1D	.	1F	in-	1A	.
0GG	.	0G	.	0B	.
=35-	=35-	=35-	=35-	=35-	=35-
.	.	.	.	.	.
1D	.	1F	.	2A/	.
.	.	.	.	2B/	.
=36-	=36-	=36-	=36-	=36-	=36-
*	*	*lig	*	*	*
2C/	.	1E	.	1c	.
2AA/	.	.	.	.	.
1BB	.	1D	.	1d	.
*	*	*Xlig	*	*	*
=37-	=37-	=37-	=37-	=37-	=37-
*	*	*lig	*	*	*
1AA	.	1E	.	1c	.
2AA/	.	1C	.	2c/	.
1E\	.	.	.	1B/	.
*	*	*Xlig	*	*	*
=38-	=38-	=38-	=38-	=38-	=38-
*	*	*lig	*	*	*
.	.	1G	.	.	.
2C/	.	.	.	1e\	.
2D/	.	1F	.	.	.
2F/	.	.	.	1d\	.
*	*	*Xlig	*	*	*
=39-	=39-	=39-	=39-	=39-	=39-
1E	.	1G	.	.	.
!	!	!	!	!LO:SIC:v:t=custos d	!
.	.	.	.	2c/	.
*lig	*	*	*	*	*
!	!	!LO:SIC:v:t=custos G	!	!LO:LB:g=original	!
1D	.	0A	.	1d	.
=40-	=40-	=40-	=40-	=40-	=40-
1AA	.	.	.	0c	.
*Xlig	*	*lig	*	*	*
!	!	!LO:LB:g=original	!	!	!
1C	.	1G	.	.	.
=41-	=41-	=41-	=41-	=41-	=41-
!LO:SIC:v:t=custos AA	!	!	!	!	!
1D	.	1F,<	.	2A/	.
.	.	.	.	2B/	.
*	*	*Xlig	*	*	*
*	*	*lig	*	*	*
!LO:LB:g=original	!	!	!	!	!
2AA/	.	1E	-tu-	2c/	.
2C/	.	.	.	1A/	-tu-
=42-	=42-	=42-	=42-	=42-	=42-
1BB	.	1D	.	.	.
.	.	.	.	2G/	lit
*	*	*Xlig	*	*	*
2AA/	.	1E,<	-lit	2A/	.
1C/	.	.	.	1G/	di-
=43-	=43-	=43-	=43-	=43-	=43-
*	*	*lig	*	*	*
.	.	1E	di-	.	.
2C/	.	.	.	1c\	.
1D	.	1F	.	.	.
.	.	.	.	2B/	.
*	*	*Xlig	*	*	*
=44-	=44-	=44-	=44-	=44-	=44-
2C/	.	1E	.	1c	-cens
2AA/	.	.	.	.	.
2E/	.	1E,<	-cens	2B/	A-
*2\right	*	*	*	*	*
2G\	.	.	.	2c/	.
=45-	=45-	=45-	=45-	=45-	=45-
*lig	*	*lig	*	*lig	*
1F	.	1D	a-	1d	.
!	!	!	!	!LO:SIC:v:t=custos c	!
1E	.	1E	.	1B	.
*Xlig	*	*Xlig	*	*Xlig	*
!	!	!	!	!LO:LB:g=original	!
=46-	=46-	=46-	=46-	=46-	=46-
*	*	*lig	*	*	*
2C/	.	1G	.	2c/	.
2BB/	.	.	.	2d/	.
2AA/	.	1A	.	2e/	.
2D/	.	.	.	2f\	.
*	*	*Xlig	*	*	*
=47-	=47-	=47-	=47-	=47-	=47-
*	*	*lig	*	*	*
!LO:SIC:v:t=custos F	!	!	!	!	!
2C/	.	1c	.	2e/	.
!LO:LB:g=original	!	!	!	!	!
1F\	.	.	.	2c/	.
.	.	1A	.	1f	.
2D/	.	.	.	.	.
*	*	*Xlig	*	*	*
=48-	=48-	=48-	=48-	=48-	=48-
*	*	*lig	*	*	*
1E	.	1G	.	1e	.
2AA/	.	1A	.	0c	.
1A\	.	.	.	.	.
*	*	*Xlig	*	*	*
=49-	=49-	=49-	=49-	=49-	=49-
.	.	0F	.	.	.
2F\	.	.	.	.	.
1A	.	.	.	2c/	.
.	.	.	.	2d/	.
=50-	=50-	=50-	=50-	=50-	=50-
1G	.	1E	.	1e	.
!	!	!LO:SIC:v:t=custos E	!	!	!
1F	.	1D	.	1f	.
!	!	!LO:LB:g=original	!	!	!
=51-	=51-	=51-	=51-	=51-	=51-
2E/	.	1E	.	2g\	.
2C/	.	.	.	2e/	.
*	*	*lig	*	*	*
!	!	!	!	!LO:SIC:v:t=custos d	!
1D	.	1F	.	1d	.
!	!	!	!	!LO:LB:g=original	!
=52-	=52-	=52-	=52-	=52-	=52-
1F	.	1D	.	2d/	.
.	.	.	.	1f\	.
*	*	*Xlig	*	*	*
*	*	*lig	*	*	*
1G	.	1C	.	.	.
.	.	.	.	2e\	.
=53-	=53-	=53-	=53-	=53-	=53-
1F	.	1D	.	0f	.
*	*	*Xlig	*	*	*
2D/	.	1D	-ve	.	.
1F\	.	.	.	.	.
=54-	=54-	=54-	=54-	=54-	=54-
*	*	*lig	*	*lig	*
.	.	1E	ple-	1g	-ve
!LO:SIC:v:t=custos D	!	!	!	!	!
1E\	.	.	.	.	.
.	.	1F	.	1f	.
!LO:LB:g=original	!	!	!	!	!
2D/	.	.	.	.	.
*	*	*Xlig	*	*Xlig	*
=55-	=55-	=55-	=55-	=55-	=55-
2E/	.	0G	.	2e/	ple-
1B\	.	.	.	1g\	.
.	.	.	.	.	.
2G\	.	.	.	1e\	.
=56-	=56-	=56-	=56-	=56-	=56-
*	*	*lig	*	*	*
2A\	.	1F	.	.	.
2B\	.	.	.	2d/	.
2c\	.	1E	.	1e	.
1B\	.	.	.	.	.
*	*	*Xlig	*	*	*
=57-	=57-	=57-	=57-	=57-	=57-
*	*	*lig	*	*	*
.	.	1F	.	2c/	.
1A\	.	.	.	2A/	.
.	.	1E	.	2B/	.
2G\	.	.	.	2c/	.
*	*	*Xlig	*	*	*
=58-	=58-	=58-	=58-	=58-	=58-
!	!	!	!	!LO:SIC:v:t=custos c	!
1A	.	1D	.	1d	.
!	!	!	!	!LO:LB:g=original	!
1AA	.	1E	.	1.c	.
=59-	=59-	=59-	=59-	=59-	=59-
*	*	*lig	*	*	*
2AA/	.	1F	.	.	.
2BB/	.	.	.	2d/	.
2C/	.	1E	.	2e/	.
2AA/	.	.	.	2c/	.
*	*	*Xlig	*	*	*
=60-	=60-	=60-	=60-	=60-	=60-
!	!	!LO:SIC:v:t=custos D	!	!	!
2E/	.	1E	-na	2B/	.
2C/	.	.	.	2c/	.
!LO:SIC:v:t=custos D	!	!LO:LB:g=original	!	!	!
2BB/	.	1D	gra-	1d	-na
!LO:PB:g=original	!	!	!	!	!
2D/	.	.	.	.	.
=61-	=61-	=61-	=61-	=61-	=61-
*	*	*lig	*	*	*
2C/	.	1G	.	2e/	gra-
2BB/	.	.	.	2d/	.
1AA	.	1A	.	1c	.
*	*	*Xlig	*	*	*
=62-	=62-	=62-	=62-	=62-	=62-
1A	.	0c	.	1e	.
2A\	.	.	.	2e\	.
2F/	.	.	.	2f\	.
=63-	=63-	=63-	=63-	=63-	=63-
*	*	*lig	*	*	*
1G	.	1B	.	2d/	.
!	!	!	!	!LO:SIC:v:t=custos e	!
.	.	.	.	1g\	.
1E	.	1G	.	.	.
!	!	!	!	!LO:PB:g=original	!
.	.	.	.	1e\	.
*	*	*Xlig	*	*	*
=64-	=64-	=64-	=64-	=64-	=64-
*	*	*lig	*	*	*
1F	.	1A	.	.	.
.	.	.	.	2d/	.
1E	.	1G	.	1e	.
*	*	*Xlig	*	*	*
=65-	=65-	=65-	=65-	=65-	=65-
1D	.	1A	.	1f	.
0GG	.	0B	.	0g	.
=66-	=66-	=66-	=66-	=66-	=66-
.	.	.	.	.	.
2BB/	.	1D	.	2g\	.
2D/	.	.	.	2d/	.
=67-	=67-	=67-	=67-	=67-	=67-
*	*	*lig	*	*	*
2C/	.	1G	.	2e/	.
2BB/	.	.	.	2d/	.
!LO:SIC:v:t=custos A	!	!	!	!	!
1AA	.	1A	.	1c	.
*	*	*Xlig	*	*	*
!LO:LB:g=original	!	!	!	!	!
=68-	=68-	=68-	=68-	=68-	=68-
1.A	.	0c	.	1e	.
.	.	.	.	2e/	.
2F/	.	.	.	2f/	.
=69-	=69-	=69-	=69-	=69-	=69-
*lig	*	*lig	*	*	*
1G	.	1B	.	2d/	.
.	.	.	.	1g\	.
1E	.	1G	.	.	.
.	.	.	.	1e\	.
*Xlig	*	*Xlig	*	*	*
=70-	=70-	=70-	=70-	=70-	=70-
*	*	*lig	*	*	*
1F	.	1A	.	.	.
!	!	!	!	!LO:SIC:v:t=custos e	!
.	.	.	.	2d/	.
!	!	!	!	!LO:LB:g=original	!
1E	.	1G	.	1e	.
*	*	*Xlig	*	*	*
=71-	=71-	=71-	=71-	=71-	=71-
!	!	!LO:SIC:v:t=custos B	!	!	!
1D	.	1A	.	1f	.
!	!	!LO:LB:g=original	!	!	!
0GG	.	0B	.	1g	.
=72-	=72-	=72-	=72-	=72-	=72-
.	.	.	.	2e/	.
.	.	.	.	2d/	.
*lig	*	*	*	*	*
1AA	.	1c	.	1c	.
=73-	=73-	=73-	=73-	=73-	=73-
1GG	.	0d	.	0B	.
*Xlig	*	*	*	*	*
2GG/	.	.	.	.	.
1G\	.	.	.	.	.
=74-	=74-	=74-	=74-	=74-	=74-
*	*	*lig	*	*	*
.	.	1c	.	1A	.
2F\	.	.	.	.	.
*lig	*	*	*	*	*
1G	.	1B	.	2G/	.
.	.	.	.	1g\	.
*	*	*Xlig	*	*	*
=75-	=75-	=75-	=75-	=75-	=75-
1C	.	1c	.	.	.
.	.	.	.	2e/	.
*Xlig	*	*	*	*	*
*lig	*	*lig	*	*	*
1D	.	1A	.	1f	.
=76-	=76-	=76-	=76-	=76-	=76-
1E	.	1G	.	1g	.
*Xlig	*	*Xlig	*	*	*
*	*	*lig	*	*	*
1D	.	1A	.	1f	.
=77-	=77-	=77-	=77-	=77-	=77-
!LO:SIC:v:t=custos AA	!	!	!	!	!
2C/	.	1c	.	2e/	.
!LO:LB:g=original	!	!	!	!	!
2AA/	.	.	.	2c/	.
*	*	*Xlig	*	*	*
*	*	*lig	*	*	*
!	!	!	!	!LO:SIC:v:t=custos e	!
2BB/	.	1G	-ci-	2d/	.
!	!	!	!	!LO:LB:g=original	!
1C/	.	.	.	1e\	-ci-
=78-	=78-	=78-	=78-	=78-	=78-
.	.	1A	.	.	.
2D/	.	.	.	2f\	-a
*	*	*Xlig	*	*	*
2E/	.	1G	-a	2g\	ple
2C/	.	.	.	2e\	.
=79-	=79-	=79-	=79-	=79-	=79-
1G	.	1G,<	.	1d	.
*	*	*lig	*	*	*
2C/	.	1G	be-	1e	.
1c\	.	.	.	.	.
=80-	=80-	=80-	=80-	=80-	=80-
.	.	1E	.	2e\	.
2A\	.	.	.	2g\	.
*	*	*Xlig	*	*	*
*	*	*lig	*	*	*
2B\	.	1F	.	2f\	.
1c\	.	.	.	2d/	.
=81-	=81-	=81-	=81-	=81-	=81-
*	*	*	*	*lig	*
.	.	1E	.	1e	.
2B\	.	.	.	.	.
*	*	*Xlig	*	*	*
*	*	*lig	*	*	*
1c	.	1D	.	1f	.
*	*	*	*	*Xlig	*
=82-	=82-	=82-	=82-	=82-	=82-
!	!	!LO:SIC:v:t=custos G	!	!	!
2C/	.	1C	.	0e	.
2E/	.	.	.	.	.
*	*	*Xlig	*	*	*
!LO:SIC:v:t=custos F	!	!LO:PB:g=original	!	!	!
2D/	.	1G	.	.	.
!LO:LB:g=original	!	!	!	!	!
1F\	.	.	.	.	.
=83-	=83-	=83-	=83-	=83-	=83-
*	*	*lig	*	*	*
.	.	1A	-ne-	1f	.
2E/	.	.	.	.	.
1D	.	1G	.	2d/	.
.	.	.	.	2e\	.
*	*	*Xlig	*	*	*
=84-	=84-	=84-	=84-	=84-	=84-
*	*	*lig	*	*	*
!	!	!	!	!LO:SIC:v:t=custos g	!
1C	.	1A	-di-	1f	.
*	*	*	*	*lig	*
!	!	!	!	!LO:LB:g=original	!
1c	.	1c	.	1g	.
*	*	*Xlig	*	*	*
=85-	=85-	=85-	=85-	=85-	=85-
1A	.	1c	-cta	1e	.
*	*	*	*	*Xlig	*
2A\	.	0c	ma-	1e	.
2F/	.	.	.	.	.
=86-	=86-	=86-	=86-	=86-	=86-
1A	.	.	.	2e\	.
.	.	.	.	2f\	.
*	*	*lig	*	*	*
1G	.	1B	.	2d/	.
.	.	.	.	1g\	.
=87-	=87-	=87-	=87-	=87-	=87-
2E/	.	1G	.	.	.
1C/	.	.	.	1e\	.
*	*	*Xlig	*	*	*
*	*	*lig	*	*	*
.	.	1A	.	.	.
2D/	.	.	.	1d\	.
=88-	=88-	=88-	=88-	=88-	=88-
1E	.	1G	.	.	.
.	.	.	.	2c/	.
*	*	*Xlig	*	*	*
1D	.	1A	.	0.d	.
=89-	=89-	=89-	=89-	=89-	=89-
0GG	.	0B	.	.	.
.	.	.	.	.	.
=90-	=90-	=90-	=90-	=90-	=90-
*	*	*lig	*	*	*
2BB/	.	1D	.	1d	.
!LO:SIC:v:t=custos C	!	!	!	!	!
2D/	.	.	.	.	.
!LO:LB:g=original	!	!	!	!	!
2C/	.	1G	.	2e/	.
2BB/	.	.	.	2d/	.
*	*	*Xlig	*	*	*
=91-	=91-	=91-	=91-	=91-	=91-
!	!	!LO:SIC:v:t=custos c	!	!	!
1AA	.	1A	.	1c	.
!	!	!LO:LB:g=original	!	!	!
1A	.	0c	.	1e	.
=92-	=92-	=92-	=92-	=92-	=92-
!	!	!	!	!LO:SIC:v:t=custos f	!
2A\	.	.	.	2e/	.
!	!	!	!	!LO:LB:g=original	!
2F/	.	.	.	2f\	.
*	*	*lig	*	*	*
1G	.	1B	.	2d/	.
.	.	.	.	1g\	.
=93-	=93-	=93-	=93-	=93-	=93-
*lig	*	*	*	*	*
1E	.	1G	.	.	.
.	.	.	.	1e\	.
*	*	*Xlig	*	*	*
*	*	*lig	*	*	*
1F	.	1A	.	.	.
.	.	.	.	2d/	.
*Xlig	*	*	*	*	*
=94-	=94-	=94-	=94-	=94-	=94-
*lig	*	*	*	*lig	*
1E	.	1G	.	1e	.
*	*	*Xlig	*	*	*
1D	.	1A	.	1f	.
*Xlig	*	*	*	*Xlig	*
=95-	=95-	=95-	=95-	=95-	=95-
0GG	.	0B	.	1g	.
.	.	.	.	2e\	.
.	.	.	.	2d/	.
=96-	=96-	=96-	=96-	=96-	=96-
1AA	.	1c	.	1c	.
1GG	.	0d	.	0B	.
=97-	=97-	=97-	=97-	=97-	=97-
2GG/	.	.	.	.	.
1G\	.	.	.	.	.
*	*	*lig	*	*	*
.	.	1c	.	1A	.
2F/	.	.	.	.	.
=98-	=98-	=98-	=98-	=98-	=98-
*lig	*	*	*	*	*
1G	.	1B	.	2G/	.
.	.	.	.	1g\	.
*	*	*Xlig	*	*	*
!LO:SIC:v:t=custos D	!	!	!	!	!
1C	.	1c	.	.	.
.	.	.	.	2e\	.
*Xlig	*	*	*	*	*
!LO:PB:g=original	!	!	!	!	!
=99-	=99-	=99-	=99-	=99-	=99-
*lig	*	*	*	*lig	*
1D	.	1A	-ri-	1f	.
!	!	!	!	!LO:SIC:v:t=custos e	!
1E	.	1G	-a	1g	.
*Xlig	*	*	*	*Xlig	*
!	!	!	!	!LO:PB:g=original	!
=100-	=100-	=100-	=100-	=100-	=100-
*	*	*lig	*	*	*
2C/	.	1G	do-	2e/	.
2BB/	.	.	.	2d/	.
1AA	.	1A	.	1c	.
*	*	*Xlig	*	*	*
=101-	=101-	=101-	=101-	=101-	=101-
*	*	*lig	*	*	*
2GG/	.	1B	.	2B/	.
2G\	.	.	.	2G/	.
!	!	!LO:SIC:v:t=custos A	!	!	!
2F\	.	1c	.	2A/	.
2E/	.	.	.	2c/	.
*	*	*Xlig	*	*	*
!	!	!LO:LB:g=original	!	!	!
=102-	=102-	=102-	=102-	=102-	=102-
1D	.	1A	.	1d	.
*	*	*lig	*	*	*
2GG/	.	1G	.	2B/	.
2C/	.	.	.	1e\	.
=103-	=103-	=103-	=103-	=103-	=103-
2AA/	.	1F	.	.	.
2D/	.	.	.	1d\	.
*	*	*Xlig	*	*	*
2GG/	.	1G	-mi-	.	.
!LO:SIC:v:t=custos BB	!	!	!	!	!
1C/	.	.	.	1e\	.
=104-	=104-	=104-	=104-	=104-	=104-
*	*	*lig	*	*	*
.	.	1G	.	.	.
!LO:LB:g=original	!	!	!	!	!
2BB/	.	.	.	2d/	.
1AA	.	1A	.	1c	.
*	*	*Xlig	*	*	*
=105-	=105-	=105-	=105-	=105-	=105-
!	!	!	!	!LO:SIC:v:t=custos G	!
2BB/	.	1G	.	2B/	.
!	!	!	!	!LO:LB:g=original	!
1C/	.	.	.	2G/	.
*	*	*lig	*	*	*
.	.	1F	-nus	1d	.
2BB/	.	.	.	.	.
=106-	=106-	=106-	=106-	=106-	=106-
1C	.	1E	.	2G/	.
.	.	.	.	1c\	.
*	*	*Xlig	*	*	*
*	*	*lig	*	*	*
1GG	.	1D	te-	.	.
.	.	.	.	2B/	.
=107-	=107-	=107-	=107-	=107-	=107-
1G	.	1E	.	1B	.
*	*	*Xlig	*	*	*
!	!	!LO:SIC:v:t=custos C	!	!	!
2G\	.	[1El;	-cum	2c/	.
2F\	.	.	.	2B/	.
=108-	=108-	=108-	=108-	=108-	=108-
2E/	.	0E_	.	1e	.
2D/	.	.	.	.	.
2C/	.	.	.	2e/	.
2BB/	.	.	.	2d/	.
=109-	=109-	=109-	=109-	=109-	=109-
1AA	.	0E]	.	1c	.
!LO:SIC:v:t=custos G	!	!	!	!LO:SIC:v:t=custos c	!
1El;;	.	.	.	1Bl;;	.
==	==	==	==	==	==
*-	*-	*-	*-	*-	*-
!!!system-decoration: [(*)]
!!!RDF**kern: < = below
!!!RDF**kern: l = terminal long
!!!AIN: 1 alto 1 bass 1 tenor
!!!ENC: Filip Voros
!!!END: 2022-01-14
!!!ENC: Andrzej Kubiczek
!!!END: 2022-01-24
